X:1
T:I'll Never Slip Around Again
T:I'll never slip around again
T:Floyd Tillman
C:Floyd Tillman
Z:All Rights Reserved
L:1/4
M:4/4
K:F
V:1 treble 
%%MIDI program 4
V:1
 z2 z A/B/ |:"F" c =B d c | A F"F7" C3/2 F/ |"Bb" G B, B, C | D3 z/ G/ |"C7" G C C D | %6
w: I'll *|nev- er slip a-|round a- gain I've|learned a lot some-|how the|gal I slipped a-|
 E d c3/2 C/ |"F" d3/2 c/ =B d | c3 z/ C/ | c =B d c | A F"F7" C E/F/ |"Bb" G B, B, C | D3 A/A/ | %13
w: round with then is|mar- ried to me|now I|know just how it|feels to live in *|lone- ly mis- er-|y cause the|
"C7" G C C3/2 D/ | E d c3/2 D/ | E d c E |"F" F2 d"C" ^d |"C7" e/g/e/c/ d c | B E2 d | %19
w: gal I slipped a-|round with then she's|slip- ping round on|me. I guess|I * * * had it|com- ing there's|
"F" d c =B d | c3 c |"G7" d e d3/2 =B/ | A A2 ^F | G =B, D ^D/E/- |"C7" E3 C |"F" c B d c | %26
w: noth- ing I can|do I|left the tru- est|sweet- heart to|fall in love with you|* I|had to learn the|
 A C2"F7" F |"Bb" G B, B, C | D3 A/A/ |"C7" G C C3/2 D/ | E d c3/2 D/ | E d c E |1"F" F2 z A/B/ :|2 %33
w: hard way that|slip- ping round don't|pay and I'll|nev- er slip a-|round a- gain un-|til my dy- ing|day I'll *|
"F" F3 z |] %34
w: day|

